svg/grid.svg

<svg xmlns="http://www.w3.org/2000/svg" viewBox="0 0 32 32"><path style="text-indent:0;text-align:start;line-height:normal;text-transform:none;block-progression:tb;-inkscape-font-specification:Bitstream Vera Sans" d="M3 6v20h26V6H3zm2 2h4v4H5V8zm6 0h4v4h-4V8zm6 0h4v4h-4V8zm6 0h4v4h-4V8zM5 14h4v4H5v-4zm6 0h4v4h-4v-4zm6 0h4v4h-4v-4zm6 0h4v4h-4v-4zM5 20h4v4H5v-4zm6 0h4v4h-4v-4zm6 0h4v4h-4v-4zm6 0h4v4h-4v-4z"/></svg>

<svg xmlns="http://www.w3.org/2000/svg" viewBox="0 0 32 32" enable-background="new 0 0 32 32"><path d="M 3 6 L 3 7 L 3 25 L 3 26 L 4 26 L 28 26 L 29 26 L 29 25 L 29 7 L 29 6 L 28 6 L 4 6 L 3 6 z M 5 8 L 9 8 L 9 12 L 5 12 L 5 8 z M 11 8 L 15 8 L 15 12 L 11 12 L 11 8 z M 17 8 L 21 8 L 21 12 L 17 12 L 17 8 z M 23 8 L 27 8 L 27 12 L 23 12 L 23 8 z M 5 14 L 9 14 L 9 18 L 5 18 L 5 14 z M 11 14 L 15 14 L 15 18 L 11 18 L 11 14 z M 17 14 L 21 14 L 21 18 L 17 18 L 17 14 z M 23 14 L 27 14 L 27 18 L 23 18 L 23 14 z M 5 20 L 9 20 L 9 24 L 5 24 L 5 20 z M 11 20 L 15 20 L 15 24 L 11 24 L 11 20 z M 17 20 L 21 20 L 21 24 L 17 24 L 17 20 z M 23 20 L 27 20 L 27 24 L 23 24 L 23 20 z"/></svg>
